svg/u0032.svg

<svg viewBox="0 0 128 128" xmlns="http://www.w3.org/2000/svg">
  <linearGradient id="SVGID_1_" gradientTransform="matrix(1 0 0 -1 0 128)" gradientUnits="userSpaceOnUse" x1="64.002" x2="64.002" y1="102" y2="26.24">
    <stop offset="0" stop-color="#757575"/>
    <stop offset="0.5148" stop-color="#504F4F"/>
  </linearGradient>
  <path d="M87.86,102H41.51c-1.12,0-2.03-0.91-2.03-2.03v-5.78c0-0.51,0.19-1,0.53-1.37l24.44-26.66 c3.6-4.02,6.17-7.37,7.7-10.07c1.53-2.69,2.29-5.4,2.29-8.11c0-3.57-1-6.45-3.01-8.65s-4.71-3.3-8.11-3.3 c-4.05,0-7.19,1.24-9.42,3.71c-1.89,2.1-2.98,4.85-3.27,8.25c-0.09,1.06-0.95,1.89-2.02,1.89h-8.46c-1.18,0-2.12-1-2.03-2.17 c0.28-3.71,1.29-7.09,3.03-10.16c2.08-3.66,5.05-6.5,8.91-8.52S58.38,26,63.42,26c7.28,0,13.02,1.83,17.22,5.48 c4.2,3.66,6.31,8.71,6.31,15.16c0,3.74-1.06,7.66-3.17,11.77c-2.11,4.1-5.57,8.76-10.38,13.98L58.27,88.6 c-1.21,1.3-0.29,3.41,1.48,3.41h28.11c1.12,0,2.03,0.91,2.03,2.03v5.93C89.89,101.09,88.98,102,87.86,102z" fill="url(#SVGID_1_)"/>
</svg>

<svg viewBox="0 0 128 128" xmlns="http://www.w3.org/2000/svg">
  <defs>
    <linearGradient id="SVGID_1_" gradientTransform="matrix(1 0 0 -1 0 0)" gradientUnits="userSpaceOnUse" x1="64.002" x2="64.002" y1="-26" y2="-101.76">
      <stop offset="0" stop-color="#757575"/>
      <stop offset="0.5148" stop-color="#504F4F"/>
    </linearGradient>
  </defs>
  <path d="M87.86,102 L41.51,102 C40.39,102 39.48,101.09 39.48,99.97 L39.48,94.19 C39.48,93.68 39.67,93.19 40.01,92.82 L64.45,66.16 C68.05,62.14 70.62,58.79 72.15,56.09 C73.68,53.4 74.44,50.69 74.44,47.98 C74.44,44.41 73.44,41.53 71.43,39.33 C69.42,37.13 66.72,36.03 63.32,36.03 C59.27,36.03 56.13,37.27 53.9,39.74 C52.01,41.84 50.92,44.59 50.63,47.99 C50.54,49.05 49.68,49.88 48.61,49.88 L40.15,49.88 C38.97,49.88 38.03,48.88 38.12,47.71 C38.4,44 39.41,40.62 41.15,37.55 C43.23,33.89 46.2,31.05 50.06,29.03 C53.92,27.01 58.38,26 63.42,26 C70.7,26 76.44,27.83 80.64,31.48 C84.84,35.14 86.95,40.19 86.95,46.64 C86.95,50.38 85.89,54.3 83.78,58.41 C81.67,62.51 78.21,67.17 73.4,72.39 L58.27,88.6 C57.06,89.9 57.98,92.01 59.75,92.01 L87.86,92.01 C88.98,92.01 89.89,92.92 89.89,94.04 L89.89,99.97 C89.89,101.09 88.98,102 87.86,102 Z" fill="url(#SVGID_1_)"/>
</svg>
